_src/static/img/sprite/teleg.svg

<svg width="21" height="17" viewBox="0 0 21 17" xmlns="http://www.w3.org/2000/svg">
<path d="M20.2806 1.16299C20.2316 1.87013 19.8255 4.34861 19.4194 7.03013L18.1522 14.9697C18.1522 14.9697 18.0542 16.1319 17.193 16.3349C16.3318 16.538 14.9176 15.6278 14.6655 15.4248C14.4625 15.2707 10.8708 12.9953 9.55451 11.8821C9.19744 11.581 8.79836 10.9719 9.60352 10.2648C11.4239 8.59844 13.6013 6.51904 14.9175 5.20278C15.5267 4.59366 16.1288 3.17938 13.6013 4.90172L6.46691 9.70465C6.46691 9.70465 5.65475 10.2088 4.14245 9.75366C2.62316 9.29858 0.851813 8.68945 0.851813 8.68945C0.851813 8.68945 -0.359424 7.9333 1.71298 7.12115L13.5033 2.2622C14.6655 1.75811 18.6143 0.140791 18.6143 0.140791C18.6143 0.140791 20.4346 -0.559347 20.2806 1.16299Z" fill="white"/>
</svg>

<svg width="21" height="17" xmlns="http://www.w3.org/2000/svg"><path d="M20.28 1.163c-.048.707-.454 3.186-.86 5.867l-1.268 7.94s-.098 1.162-.959 1.365c-.861.203-2.275-.707-2.528-.91-.202-.154-3.794-2.43-5.11-3.543-.358-.301-.757-.91.049-1.617a189.771 189.771 0 005.314-5.062c.609-.61 1.21-2.024-1.317-.301L6.467 9.705s-.812.504-2.325.049C2.623 9.299.852 8.689.852 8.689s-1.211-.756.861-1.568l11.79-4.859c1.162-.504 5.111-2.121 5.111-2.121s1.82-.7 1.667 1.022z" fill="#fff"/></svg>
